assets/video_stop.svg

<svg fill="none" viewBox="0 0 24 24" xmlns="http://www.w3.org/2000/svg"><path clip-rule="evenodd" d="m3.63523 3.65803c.18887-.20146.50529-.21166.70674-.0228l16.00003 14.99997c.2014.1889.2116.5053.0228.7068-.1889.2014-.5053.2116-.7068.0228l-3.2243-3.0228c-.4925.9831-1.5089 1.658-2.6837 1.658h-7c-1.65685 0-3-1.3431-3-3v-6c0-1.26165.77882-2.3414 1.88191-2.78472l-1.97388-1.85051c-.20146-.18886-.21166-.50528-.0228-.70674zm2.85197 3.35908c-.98037.12868-1.7372.9674-1.7372 1.98289v6c0 1.1046.89543 2 2 2h7c.8908 0 1.6465-.5828 1.9048-1.3882zm3.04681-.69837c.07475-.19217.2598-.31874.46599-.31874h3.5c1.5384 0 2.8064 1.15803 2.9798 2.64996l1.276-.72914c1-.57142 2.2442.15063 2.2442 1.30236v6.27682c0 .2022-.1218.3846-.3087.4619-.1868.0774-.4019.0347-.5449-.1083l-3.4923-3.4924-5.99196-5.49262c-.152-.13933-.20288-.35767-.12813-.54984zm6.96599 5.47416 2.5 2.5v-5.06972c0-.38391-.4147-.62459-.7481-.43412l-1.5.85714c-.1558.08902-.2519.2547-.2519.4341zm-1-.9295v-1.8634c0-1.10457-.8954-2-2-2h-2.2146z" fill="#000" fill-rule="evenodd"/></svg>

<svg xmlns="http://www.w3.org/2000/svg" viewBox="0 0 24 24" fill="none" x="0px" y="0px"><path fill-rule="evenodd" clip-rule="evenodd" d="M3.63523 3.65803C3.8241 3.45657 4.14052 3.44637 4.34197 3.63523L20.342 18.6352C20.5434 18.8241 20.5536 19.1405 20.3648 19.342C20.1759 19.5434 19.8595 19.5536 19.658 19.3648L16.4337 16.342C15.9412 17.3251 14.9248 18 13.75 18H6.75C5.09315 18 3.75 16.6569 3.75 15V9C3.75 7.73835 4.52882 6.6586 5.63191 6.21528L3.65803 4.36477C3.45657 4.17591 3.44637 3.85949 3.63523 3.65803ZM6.4872 7.01711C5.50683 7.14579 4.75 7.98451 4.75 9V15C4.75 16.1046 5.64543 17 6.75 17H13.75C14.6408 17 15.3965 16.4172 15.6548 15.6118L6.4872 7.01711ZM9.53401 6.31874C9.60876 6.12657 9.79381 6 10 6H13.5C15.0384 6 16.3064 7.15803 16.4798 8.64996L17.7558 7.92082C18.7558 7.3494 20 8.07145 20 9.22318V15.5C20 15.7022 19.8782 15.8846 19.6913 15.9619C19.5045 16.0393 19.2894 15.9966 19.1464 15.8536L15.6541 12.3612L9.66214 6.86858C9.51014 6.72925 9.45926 6.51091 9.53401 6.31874ZM16.5 11.7929L19 14.2929V9.22318C19 8.83927 18.5853 8.59859 18.2519 8.78906L16.7519 9.6462C16.5961 9.73522 16.5 9.9009 16.5 10.0803V11.7929ZM15.5 10.8634V9C15.5 7.89543 14.6046 7 13.5 7H11.2854L15.5 10.8634Z" fill="black"></path></svg>
